li/brand-wordpress.svg

<svg role="img" focusable="false" aria-hidden="true" xmlns="http://www.w3.org/2000/svg" viewBox="0 0 14 14" height="1em" width="1em">
  <path d="M 2.2991938,4.90486 4.754839,11.63062 C 3.037097,10.79836 1.8540322,9.03712 1.8540322,7 c 0,-0.7476 0.159678,-1.45404 0.445164,-2.09514 z M 10.474194,6.7411 c 0,-0.63624 -0.227418,-1.07658 -0.42339,-1.42014 C 9.789516,4.89736 9.54516,4.53712 9.54516,4.1137 c 0,-0.474 0.358068,-0.91452 0.86371,-0.91452 0.02178,0 0.04356,0.002 0.06774,0.005 C 9.559677,2.36466 8.340323,1.85178 7,1.85178 c -1.797581,0 -3.379839,0.92172 -4.301613,2.32014 0.120966,0.005 0.234678,0.006 0.331452,0.006 0.537096,0 1.371774,-0.0654 1.371774,-0.0654 0.278226,-0.018 0.309678,0.3918 0.0339,0.4236 0,0 -0.278226,0.03 -0.587904,0.048 l 1.875,5.57418 L 6.850028,6.7809 6.049222,4.58412 c -0.278226,-0.018 -0.539514,-0.048 -0.539514,-0.048 -0.278226,-0.018 -0.244356,-0.4404 0.03144,-0.4236 0,0 0.849194,0.0654 1.354839,0.0654 0.537096,0 1.371774,-0.0654 1.371774,-0.0654 0.278226,-0.018 0.309678,0.3918 0.0339,0.4236 0,0 -0.278226,0.03 -0.587904,0.048 l 1.860484,5.53308 0.512904,-1.71534 c 0.21774,-0.7113 0.387096,-1.22178 0.387096,-1.66212 z M 7.089516,7.45 5.545968,11.93788 c 0.462096,0.1356 0.948387,0.2106 1.454032,0.2106 0.6,0 1.173387,-0.1038 1.708064,-0.2928 -0.01452,-0.024 -0.02664,-0.048 -0.0363,-0.0702 L 7.089516,7.45 Z m 4.42742,-2.92014 c 0.02178,0.1644 0.0339,0.339 0.0339,0.5298 0,0.5226 -0.09677,1.10808 -0.391938,1.84356 l -1.572581,4.54596 c 1.531451,-0.89274 2.559677,-2.55 2.559677,-4.44918 0,-0.89514 -0.227418,-1.73712 -0.629032,-2.47014 z M 13,7 c 0,3.30966 -2.692742,6 -6,6 C 3.690323,13 1,10.30726 1,7 1,3.69034 3.690323,1 7,1 c 3.307258,0 6,2.69034 6,6 z m -0.275808,0 c 0,-3.15726 -2.569355,-5.72418 -5.724194,-5.72418 -3.157258,0 -5.7241936,2.56692 -5.7241936,5.72418 0,3.15726 2.5693546,5.72418 5.7241936,5.72418 3.157258,0 5.724194,-2.56692 5.724194,-5.72418 z"/>
</svg>

<svg aria-hidden="true" xmlns="http://www.w3.org/2000/svg" viewBox="0 0 14 14" height="1em" width="1em">
  <path d="m2.3 4.905 2.455 6.726a5.142 5.142 0 0 1-2.456-6.726zm8.174 1.836c0-.636-.227-1.076-.423-1.42-.261-.424-.506-.784-.506-1.207 0-.474.358-.915.864-.915.022 0 .043.002.068.005a5.143 5.143 0 0 0-7.778.968c.12.005.234.006.33.006.538 0 1.373-.065 1.373-.065.278-.018.31.391.034.423 0 0-.279.03-.588.048l1.875 5.574L6.85 6.781l-.8-2.197c-.279-.018-.54-.048-.54-.048-.279-.018-.245-.44.031-.423 0 0 .85.065 1.355.065.537 0 1.372-.065 1.372-.065.278-.018.31.391.034.423 0 0-.279.03-.588.048l1.86 5.533.513-1.715c.218-.711.387-1.222.387-1.662zM7.09 7.45l-1.544 4.488a5.149 5.149 0 0 0 3.162-.082.596.596 0 0 1-.036-.07L7.09 7.45Zm4.427-2.92c.022.164.034.339.034.53 0 .522-.097 1.108-.392 1.843L9.586 11.45A5.143 5.143 0 0 0 12.146 7a5.12 5.12 0 0 0-.629-2.47zM13 7c0 3.31-2.693 6-6 6-3.31 0-6-2.693-6-6 0-3.31 2.69-6 6-6 3.307 0 6 2.69 6 6zm-.276 0A5.731 5.731 0 0 0 7 1.276 5.73 5.73 0 0 0 1.276 7 5.731 5.731 0 0 0 7 12.724 5.73 5.73 0 0 0 12.724 7z"/>
</svg>
